assets/icons/24px/stroke/twitter-24px.svg

<svg width="24" height="24" viewBox="0 0 24 24" fill="none" xmlns="http://www.w3.org/2000/svg">
<path fill-rule="evenodd" clip-rule="evenodd" d="M11.0434 8.53157C11.1766 6.00567 13.2681 4 15.8264 4C16.9716 4 18.0252 4.40261 18.8495 5.0716C18.9917 5.01261 19.1409 4.94061 19.305 4.85898C19.319 4.85204 19.3333 4.84491 19.3479 4.83762C19.4935 4.76506 19.6705 4.67686 19.8385 4.60859C20.0159 4.53657 20.2878 4.44118 20.5965 4.44118C21.1639 4.44118 21.4815 4.83954 21.589 4.99807C21.7253 5.19923 21.8094 5.42591 21.864 5.62464C21.9765 6.03475 22.0227 6.54756 21.9895 7.10049C21.9276 8.12853 21.5832 9.41708 20.7046 10.6213C20.7587 13.8665 19.5774 16.4723 17.4648 18.2654C15.3002 20.1025 12.2627 21 8.84487 21C7.67693 21 6.02459 20.7705 4.71515 20.433C4.06939 20.2666 3.42955 20.0548 2.95969 19.7921C2.73646 19.6673 2.4484 19.4756 2.24629 19.1875C2.13722 19.032 2.03356 18.8202 2.00663 18.5589C1.97865 18.2874 2.04105 18.0325 2.15925 17.8173C2.3189 17.5267 2.55541 17.321 2.74865 17.1813C2.95177 17.0344 3.18227 16.9073 3.40945 16.7961C3.85992 16.5757 4.41491 16.3626 4.94786 16.1582C5.49261 15.9492 6.01971 15.7455 6.49203 15.5348C5.07126 14.4993 4.18595 13.4282 3.65891 12.302C2.98287 10.8573 2.95942 9.44134 2.95942 8.22983C2.95942 8.21908 2.95941 8.20786 2.9594 8.19617C2.9591 7.85927 2.95845 7.1381 3.18973 6.48349C3.31478 6.12956 3.52851 5.73002 3.90419 5.41731C4.2963 5.09093 4.78882 4.92281 5.34495 4.92281C6.11233 4.92281 6.7165 5.42128 7.09483 5.76237C7.2997 5.94707 7.51125 6.1576 7.71467 6.36005C7.72574 6.37107 7.73679 6.38206 7.74781 6.39302C7.96792 6.61201 8.18867 6.83069 8.42607 7.04713C9.13997 7.69802 9.96061 8.28819 11.0434 8.53157ZM15.8264 6C14.2855 6 13.0366 7.24847 13.0366 8.7878C13.0366 9.00617 13.0618 9.21928 13.1092 9.42684C13.1769 9.72354 13.1059 10.0349 12.9161 10.2729C12.7264 10.5108 12.4386 10.6494 12.1343 10.6494C9.76892 10.6494 8.18638 9.53507 7.07859 8.52507C6.80506 8.27569 6.55603 8.02855 6.3372 7.81083L6.32043 7.79414C6.10258 7.57739 5.92286 7.39857 5.75563 7.24781C5.4564 6.97804 5.33247 6.93033 5.32166 6.92317C5.26121 6.92509 5.22732 6.9342 5.21217 6.9394C5.19645 6.94479 5.18926 6.94984 5.18369 6.95448C5.1697 6.96613 5.12364 7.01349 5.07549 7.14975C4.96842 7.4528 4.95942 7.85773 4.95942 8.22983C4.95942 9.43786 5.00046 10.4501 5.47038 11.4543C5.93184 12.4404 6.87042 13.5401 8.91496 14.7226C9.20247 14.8889 9.38865 15.187 9.41187 15.5183C9.43508 15.8496 9.2923 16.1709 9.03079 16.3756C8.13033 17.0806 6.80208 17.5895 5.77793 17.9819C5.73959 17.9966 5.70167 18.0111 5.66422 18.0255C5.33544 18.1516 5.03872 18.2661 4.77782 18.3744C4.91202 18.4152 5.05775 18.456 5.21425 18.4963C6.38989 18.7993 7.87303 19 8.84487 19C11.9393 19 14.4678 18.1858 16.1706 16.7406C17.8451 15.3194 18.8241 13.2031 18.6951 10.3391C18.684 10.093 18.7641 9.85154 18.9201 9.66089C19.6706 8.74364 19.9474 7.73969 19.9931 6.98039C19.998 6.89762 20.0002 6.81938 20 6.746C19.6821 6.89947 19.2612 7.08291 18.7848 7.17622C18.4476 7.24228 18.1 7.1305 17.8644 6.88022C17.3541 6.33801 16.6298 6 15.8264 6ZM3.86809 18.8443C3.86808 18.8443 3.86828 18.8441 3.86869 18.8437C3.8683 18.8441 3.8681 18.8443 3.86809 18.8443Z" fill="white"/>
</svg>

<svg width="24" height="24" fill="none" xmlns="http://www.w3.org/2000/svg"><path fill-rule="evenodd" clip-rule="evenodd" d="M11.043 8.532A4.79 4.79 0 0 1 15.826 4c1.146 0 2.2.403 3.023 1.072a7.473 7.473 0 0 0 .499-.234 7.31 7.31 0 0 1 .49-.23c.178-.071.45-.167.758-.167.568 0 .886.399.993.557.136.201.22.428.275.627.113.41.159.923.125 1.475a6.707 6.707 0 0 1-1.284 3.521c.054 3.245-1.128 5.851-3.24 7.644C15.3 20.102 12.263 21 8.845 21c-1.168 0-2.82-.23-4.13-.567-.646-.166-1.285-.378-1.755-.64-.224-.126-.512-.317-.714-.605a1.332 1.332 0 0 1-.24-.63 1.265 1.265 0 0 1 .153-.74c.16-.291.396-.497.59-.637.203-.147.433-.274.66-.385.45-.22 1.006-.433 1.539-.638a32.194 32.194 0 0 0 1.544-.623c-1.42-1.036-2.306-2.107-2.833-3.233-.676-1.445-.7-2.86-.7-4.072v-.034c0-.337 0-1.058.23-1.713a2.41 2.41 0 0 1 .715-1.066c.392-.326.885-.494 1.441-.494.767 0 1.372.498 1.75.84a17.93 17.93 0 0 1 .653.63c.22.219.44.438.678.654.714.651 1.535 1.241 2.617 1.485zM15.826 6a2.789 2.789 0 0 0-2.717 3.427 1 1 0 0 1-.975 1.222c-2.365 0-3.948-1.114-5.055-2.124-.274-.25-.523-.496-.742-.714l-.017-.017c-.217-.217-.397-.395-.564-.546-.3-.27-.424-.318-.434-.325a.378.378 0 0 0-.11.016.082.082 0 0 0-.028.015c-.014.012-.06.06-.109.196-.107.303-.116.708-.116 1.08 0 1.208.041 2.22.511 3.224.462.986 1.4 2.086 3.445 3.269a1 1 0 0 1 .116 1.653c-.9.705-2.229 1.213-3.253 1.606l-.114.044c-.329.126-.625.24-.886.348.134.041.28.082.436.122C6.39 18.8 7.873 19 8.844 19c3.095 0 5.624-.814 7.327-2.26 1.674-1.42 2.653-3.537 2.524-6.4a1 1 0 0 1 .225-.68 4.727 4.727 0 0 0 1.073-2.68c.005-.082.007-.16.007-.234a5.046 5.046 0 0 1-1.215.43 1 1 0 0 1-.92-.296A2.79 2.79 0 0 0 15.825 6zM3.868 18.844z" fill="#fff"/></svg>
